!!!COM: Fux, Johann Joseph
!!!OMD: Gradus ad Parnassum Exercise
!!!YEC: CC0 1.0 Universal (Public Domain). Mark Gotham and FourScoreAndMore.org waive all rights to this document.
**kern	**kern
*part2	*part1
*staff2	*staff1
*I"2	*I"1
*I'Pno	*I'Pno
!!LO:LB:g=z
*clefF4	*clefG2
*k[]	*k[]
!!LO:TX:omd:t=
*M2/2	*M2/2
=130	=130
!	!LO:TX:a:t=Fig. 35; Species&colon; 2; Modal final&colon; d; Cantus firmus&colon; Upper
2r	1d
2D\	.
=131	=131
2d\	1f
2A\	.
=132	=132
2c\	1e
2A\	.
=133	=133
2B\	1d
2A\	.
=134	=134
2G\	1g
2B\	.
!!LO:LB:g=z
=135	=135
2d\	1f
2e\	.
=136	=136
2f\	1a
2c\	.
=137	=137
2e\	1g
2B\	.
=138	=138
2d\	1f
2D\	.
=139	=139
2A\	1e
2c#X\	.
=140	=140
1d	1d
==	==
*-	*-
!!!software: music21 v.9.7.1
!!!software: music21 v.9.7.1
!!!software: MuseScore 3.4.2
!!!RDF**kern: > = above
!!!RDF**kern: < = below
